images/check.svg

<svg width="11" height="8" viewBox="0 0 13 10" fill="none" xmlns="http://www.w3.org/2000/svg">
<path d="M1.95703 4.75166L1.88825 4.68604L1.81923 4.75141L0.93123 5.59258L0.854858 5.66492L0.930974 5.73753L4.42671 9.07236L4.49574 9.1382L4.56476 9.07236L12.069 1.91352L12.1449 1.84116L12.069 1.76881L11.1873 0.927644L11.1183 0.861826L11.0493 0.927611L4.49577 7.17353L1.95703 4.75166Z" fill="white" stroke="white" stroke-width="0.2"/>
</svg>

<svg width="11" height="8" viewBox="0 0 13 10" fill="none" xmlns="http://www.w3.org/2000/svg"><path d="m1.957 4.752-.069-.066-.069.065-.888.842-.076.072.076.073 3.496 3.334.069.066.069-.066 7.504-7.158.076-.073-.076-.072-.882-.841-.069-.066-.069.066-6.553 6.246-2.539-2.422Z" fill="#fff" stroke="#fff" stroke-width=".2"/></svg>
